!!!id: EG015
!!!page: 310
!!!COM: Anonymous
!!!LYR: Anonymous
!!!PTL@@FR: Chansons Populaires du Canada
!!!OTL@@FR: Celle que mon coeur aime
!!!PUB: G. E. Desbarats
!!!YEM:
!!!PDT: 1865
!!!SMA:
!!!OMD:
!!!AGN-Laforte:
!!!AGN-type:
!!!AGN-rime:
**kern	**text	**text	**text	**text	**text	**text
*clefG2	*	*	*	*	*	*
*M3/8	*	*	*	*	*	*
*k[f#]	*	*	*	*	*	*
*G:	*	*	*	*	*	*
*	*v:1	*v:2	*v:3	*v:4	*v:5	*v:6
*	*pline:1	*pline:5	*pline:9	*pline:13	*pline:18	*pline:22
=1	=1	=1	=1	=1	=1	=1
8d	Dans	Je	Je	Je	Je	Je
8e	mon	les	les	les	les	les
8f#	che-	ai	ai	ai	ai	ai
=2	=2	=2	=2	=2	=2	=2
4.g	-min	tout'	tout'	tout'	tout'	tout'
=3	=3	=3	=3	=3	=3	=3
4.b	j'ai	tout'	tout'	tout'	tout'	tout'
=4	=4	=4	=4	=4	=4	=4
4a	ren-	fait	fait	fait	fait	ren-
8a	-con-	en-	as-	man-	cou-	-vo-
=5	=5	=5	=5	=5	=5	=5
4g	-tré,	-trer,	-seoir,	-ger,	-cher,	-yées,
8r	.	.	.	.	.	.
=6	=6	=6	=6	=6	=6	=6
*	*pline:1r	*pline:5r	*pline:9r	*pline:14	*pline:18r	*pline:22r
8d	Dans	Je	Je	Je	Je	Je
8e	mon	les	les	les	les	les
8f#	che-	ai	ai	ai	ai	ai
=7	=7	=7	=7	=7	=7	=7
4.g	-min	tout'	tout'	tout'	tout'	tout'
=8	=8	=8	=8	=8	=8	=8
4.b	j'ai	tout'	tout'	tout'	tout'	tout'
=9	=9	=9	=9	=9	=9	=9
4a	ren-	fait	fait	fait	fait	ren-
8a	-con-	en-	as-	man-	cou-	-vo-
=10	=10	=10	=10	=10	=10	=10
4g	-tré:	-trer:	-seoir:	-ger:	-cher:	-yées:
8r	.	.	.	.	.	.
=11	=11	=11	=11	=11	=11	=11
*	*pline:2	*pline:6	*pline:10	*pline:15	*pline:19	*pline:23
8d	Ren-	Fait	Un'	Pa-	Pail-	Ren-
8e	-con-	en-	chaise	-tat[e]	-lass[e]	-vo-
8f#	-tré	-trer	à	à	à	-yé
=12	=12	=12	=12	=12	=12	=12
4g	Mi-	Mi-	Mi-	Mi-	Mi-	Mi-
8g	-ne,	-ne,	-ne,	-ne,	-ne,	-ne,
=13	=13	=13	=13	=13	=13	=13
8d	ren-	fait-	un'	pa-	pail-	ren-
8e	-con-	en-	chaise	-tat[e]	-lass[e]	-vo-
8f#	-tré	-trer	à	à	à	-yé
=14	=14	=14	=14	=14	=14	=14
4g	Fi-	Fi-	Fi-	Fi-	Fi-	Fi-
8g	-ne,	-ne,	-ne,	-ne,	-ne,	-ne,
=15	=15	=15	=15	=15	=15	=15
8d	Ren-	Fait	Un'	Pa-	Pail-	Ren-
8e	-con-	en-	chaise	tat[e]	-lass[e]	-vo-
8f#	-tré	-trer	à	à	à	-yé
=16	=16	=16	=16	=16	=16	=16
4g	Jac-	Jac-	Jac-	Jac-	Jac-	Jac-
8g	-que...	-que...	-que...	-que...	-que...	-que...
=17	=17	=17	=17	=17	=17	=17
4a	Jac-	Jac-	Jac-	Jac-	Jac-	Jac-
8a	-que-	-que-	-que-	-que-	-que-	-que-
=18	=18	=18	=18	=18	=18	=18
4b	-li-	-li-	-li-	-li-	-li-	-li-
8g	-ne,	-ne,	-ne,	-ne,	-ne,	-ne,
=19	=19	=19	=19	=19	=19	=19
*	*italic	*italic	*italic	*italic	*italic	*italic
8g	Tra	Tra	Tra	Tra	Tra	Tra
8g	la	la	la	la	la	la
8g	la	la	la	la	la	la
=20	=20	=20	=20	=20	=20	=20
4g	la	la	la	la	la	la
8g	la	la	la	la	la	la
=21	=21	=21	=21	=21	=21	=21
4f#	la	la	la	la	la	la
8e	la	la	la	la	la	la
=22	=22	=22	=22	=22	=22	=22
4d	la	la,	la,	la,	la,	la,
*	*Xitalic	*Xitalic	*Xitalic	*Xitalic	*Xitalic	*Xitalic
8r	.	.	.	.	.	.
=23	=23	=23	=23	=23	=23	=23
*	*pline:3	*pline:7	*pline:11	*pline:16	*pline:20	*pline:24
8a	Ren-	Fait	Une	Pa-	Pail-	Ren-
8a	-con-	en-	chaise	-tat[e]	-lass[e]	-vo-
8a	-tré	-trer	à	à	à	-yé
=24	=24	=24	=24	=24	=24	=24
4g	Ger	Ger-	Ger-	Ger-	Ger-	Ger-
8a	-mi-	-mi-	-mi-	-mi-	-mi-	-mi-
=25	=25	=25	=25	=25	=25	=25
4b	-net-	-net-	-net-	-net-	-net-	-net-
8a	-te,	-te,	-te,	-te,	-te,	-te,
=26	=26	=26	=26	=26	=26	=26
4a	Cell'	Cell'	Cell'	Cell'	Cell'	Cell'
8a	qui	qui	qui	qui	qui	qui
=27	=27	=27	=27	=27	=27	=27
4g	vend	vend	vend	vend	vend	vend
8a	des	des	des	des	des	des
=28	=28	=28	=28	=28	=28	=28
4b	cho-	cho-	cho-	cho-	cho-	cho-
8a	-pi-	-pi-	-pi-	-pi-	-pi-	-pi-
=29	=29	=29	=29	=29	=29	=29
4a	-net-	-net-	-net-	-net-	-net-	-net-
8a	-tes,	-tes,	-tes,	-tes,	-tes,	-tes,
=30	=30	=30	=30	=30	=30	=30
*	*pline:4	*pline:8	*pline:12	*pline:17	*pline:21	*pline:25
8g	J'ai	J'ai	Un	Un	Un	Mais
8g	ren-	fait	beau	bon	beau	j'ai
8g	-con-	en-	fau-	cha-	lit	gar-
=31	=31	=31	=31	=31	=31	=31
8%3g	-tré	-trer	-teuil à	-pon à	d'plume à	-dé
*	*refrain	*refrain	*refrain	*refrain	*refrain	*refrain
8%3g	ma	ma	ma	ma	ma	ma
=32	=32	=32	=32	=32	=32	=32
(4f#	rei-	rei-	rei-	rei-	rei-	rei-
8e)	.	.	.	.	.	.
=33	=33	=33	=33	=33	=33	=33
4d	-ne,	-ne,	-ne,	-ne,	-ne,	-ne,
8r	.	.	.	.	.	.
=34	=34	=34	=34	=34	=34	=34
8e	Cel-	Cel-	Cel-	Cel-	Cel-	Cel-
8f#	-le	-le	-le	-le	-le	-le
8g	que	que	que	que	que	que
=35	=35	=35	=35	=35	=35	=35
8%3f#	mon	mon	mon	mon	mon	mon
8%3a	coeur	coeur	coeur	coeur	coeur	coeur
=36	=36	=36	=36	=36	=36	=36
(4g	ai-	ai-	ai-	ai-	ai-	ai-
8f#)	.	.	.	.	.	.
=37	=37	=37	=37	=37	=37	=37
4g	-me.	-me.	-me.	-me.	-me.	-me.
*	*Xrefrain	*Xrefrain	*Xrefrain	*Xrefrain	*Xrefrain	*Xrefrain
8r	.	.	.	.	.	.
==	==	==	==	==	==	==
*-	*-	*-	*-	*-	*-	*-
!!!EED-1: Isaac Howie
!!!EEV-1: 2026/01/18
